modules/zondicons/icons/music-notes.svg

<?xml version="1.0" encoding="UTF-8" standalone="no"?>
<svg width="20px" height="20px" viewBox="0 0 20 20" version="1.1" xmlns="http://www.w3.org/2000/svg" xmlns:xlink="http://www.w3.org/1999/xlink">
    <!-- Generator: Sketch 3.7.2 (28276) - http://www.bohemiancoding.com/sketch -->
    <title>music-notes</title>
    <desc>Created with Sketch.</desc>
    <defs></defs>
    <g id="Page-1" stroke="none" stroke-width="1" fill="none" fill-rule="evenodd">
        <g id="music-notes" fill="#000000">
            <path d="M18,4.28571429 L8,5.71428571 L8,17 C8,18.6568542 6.65685425,20 5,20 L3,20 C1.34314575,20 0,18.6568542 0,17 C0,15.3431458 1.34314575,14 3,14 L5,14 C5.35063542,14 5.68722107,14.0601542 6,14.1707057 L6,4 L6,2 L20,0 L20,2.5 L20,15 C20,16.6568542 18.6568542,18 17,18 L15,18 C13.3431458,18 12,16.6568542 12,15 C12,13.3431458 13.3431458,12 15,12 L17,12 C17.3506354,12 17.6872211,12.0601542 18,12.1707057 L18,4.28571429 Z" id="Combined-Shape"></path>
        </g>
    </g>
</svg>

<svg width="20" height="20" viewBox="0 0 20 20" xmlns="http://www.w3.org/2000/svg"><path d="M18 4.286L8 5.714V17a3 3 0 0 1-3 3H3a3 3 0 0 1 0-6h2c.35 0 .687.06 1 .17V2l14-2v15a3 3 0 0 1-3 3h-2a3 3 0 0 1 0-6h2c.35 0 .687.06 1 .17V4.287z" fill="#000" fill-rule="evenodd"/></svg>
